X: 10512
T: The MAID OF LODI
C: Shield.
%R: air, jig
B: W. Hamilton "Universal Tune-Book" Vol. 1 Glasgow 1844 p.51 #2
S: http://imslp.org/wiki/Hamilton's_Universal_Tune-Book_(Various)
Z: 2016 John Chambers <jc:trillian.mit.edu>
M: 6/8
L: 1/8
K: B
% - - - - - - - - - - - - - - - - - - - - - - - - -
F |\
B2B d2B | AGz z2e | dfB cfA | B2z z2F |\
B2B d2B | AGz z2e | dfB cfA | B3 z2 :|
|: B |\
A2F f2A |cBz z2B | A2F f2A | B2z z4F |\
f2f (g/f/e/d/c/B/) | (AG2) Hg2 (b/g/) | fdB cfA | B3 z2 :|
% - - - - - - - - - - - - - - - - - - - - - - - - -

%%sep 1 1 500
%%sep 1 1 500

